X: 1609
T: the New Moon
R: hornpipe, reel
O: F.O'Neill.
B: O'Neill's 1850 #1609
Z: Michael D. Long, 10/05/98
Z: Michael Hogan
Z: Compacted via repeats and multiple endings [JC]
M: 2/4
L: 1/16
K: G
   (3(DEF) | GFGA BGdB | AGAB [1,3 cAFA | GFGA BGdB | AGAB A2 :|[2,4 Agfa | gdec dBcA | B2G2 G2 :|
|: (3(def) | gfga gfed | cBAB cdef |[1,3  gfga gfed | e2a2 a2 :|[2,4 gdec dBcA | B2G2 G2 :|
